/* XPM */
static char *brick_xpm[] = {
"32 32 2 1",
". c #C0C0C0",
"  c #404040",
"                                ",
"..............  ..............  ",
"..............  ..............  ",
"..............  ..............  ",
"..............  ..............  ",
"..............  ..............  ",
"..............  ..............  ",
"..............  ..............  ",
"                                ",
"       ..............  .........",
"       ..............  .........",
"       ..............  .........",
"       ..............  .........",
"       ..............  .........",
"       ..............  .........",
"       ..............  .........",
"                                ",
"..............  ..............  ",
"..............  ..............  ",
"..............  ..............  ",
"..............  ..............  ",
"..............  ..............  ",
"..............  ..............  ",
"..............  ..............  ",
"                                ",
"       ..............  .........",
"       ..............  .........",
"       ..............  .........",
"       ..............  .........",
"       ..............  .........",
"       ..............  .........",
"       ..............  .........",
};
