/* XPM */
static char *bump_brick_relief_xpm[] = {
"32 32 4 1",
"a c #202020",
"b c #606060",
"c c #A0A0A0",
"d c #E0E0E0",
"aaaaaaaaaaaaaaaaaaaaaaaaaaaaaaaa",
"abbbbbbbbbbbbbbaabbbbbbbbbbbbbba",
"abccccccccccccbaabccccccccccccba",
"abcddddddddddcbaabcddddddddddcba",
"abcddddddddddcbaabcddddddddddcba",
"abcddddddddddcbaabcddddddddddcba",
"abcddddddddddcbaabcddddddddddcba",
"abcddddddddddcbaabcddddddddddcba",
"aaaaaaaaaaaaaaaaaaaaaaaaaaaaaaaa",
"bbbbbbbbbbbaabbbbbbbbbbbbbbaabbb",
"ccccccccccbaabccccccccccccbaabcc",
"dddddddddcbaabcddddddddddcbaabcd",
"dddddddddcbaabcddddddddddcbaabcd",
"dddddddddcbaabcddddddddddcbaabcd",
"dddddddddcbaabcddddddddddcbaabcd",
"dddddddddcbaabcddddddddddcbaabcd",
"aaaaaaaaaaaaaaaaaaaaaaaaaaaaaaaa",
"abbbbbbbbbbbbbbaabbbbbbbbbbbbbba",
"abccccccccccccbaabccccccccccccba",
"abcddddddddddcbaabcddddddddddcba",
"abcddddddddddcbaabcddddddddddcba",
"abcddddddddddcbaabcddddddddddcba",
"abcddddddddddcbaabcddddddddddcba",
"abcddddddddddcbaabcddddddddddcba",
"aaaaaaaaaaaaaaaaaaaaaaaaaaaaaaaa",
"bbbbbbbbbbbaabbbbbbbbbbbbbbaabbb",
"ccccccccccbaabccccccccccccbaabcc",
"dddddddddcbaabcddddddddddcbaabcd",
"dddddddddcbaabcddddddddddcbaabcd",
"dddddddddcbaabcddddddddddcbaabcd",
"dddddddddcbaabcddddddddddcbaabcd",
"dddddddddcbaabcddddddddddcbaabcd",
};
