/* XPM */
static char *bump_stone_noise_xpm[] = {
"32 32 4 1",
"a c #202020",
"b c #606060",
"c c #A0A0A0",
"d c #E0E0E0",
"abcacdbcdbcabdbcdbcabdacdbcdbcac",
"cacacacacacacacacacacacacacacaca",
"adbacbdcbdbacbdcbdcacbacbdcadbac",
"ccbddcbadcbadcbadcbadcbbdccbddcb",
"baaddcccbbbaddcccbbbadddccbbbadd",
"ddddddddaaaaaaaaabbbbbbbbbbbbbcc",
"bccdaabccddabbccddabbccdaabccdda",
"dbcdabcdbcdabcdbcdabcdabcdbcdabc",
"cdbdbcabdbcacdbcacdbdacdbdbcacdb",
"acbdbdbdcdcacacbdbdbdcacacacbdbd",
"cbacbacbacbacbadbadbadbadcadcadc",
"badccbadccbadccbadccbadccbadccba",
"ddccccbbbbaaadddccccbbbbaaadddcc",
"bcccccddddaaabbbbbcccccddddaaabb",
"dabccdabccdabccdabbcddabccdabccd",
"cdbcdacdabdabcabcdbcdbcdbcdbcdac",
"acacdbdbcacacdbdbdbcacacdbdbcaca",
"cbdbacadbdcacbdbdcacbdcacbdbdcac",
"bdcbadcbdcbadcbdcbadcadcbacbadcb",
"dccbbadccbbaddcbbaddccbaddccbbad",
"bbbbbbbbaaaaaaddddddddcccccccccc",
"daabbcccdddaabbcccdddaabbcccddda",
"cdabccdabcdabcddbccdabcdabcddbbc",
"acdbcdbcdbcabdacdbcdbcabdacdbcdb",
"cacacacacacacacacacdcdcdbdbdbdbd",
"bdcacbdcbdcacbdcadbacbdcadbdcbdc",
"dcbadcbadcbadcbadcbadcbadcbadcba",
"bbaaddccbbbaddcccbbadddccbbaaddc",
"ddddaaaaaaaaaaaaaaaaaabbbbbbbbbb",
"ccddabbccddabbccddabbccddaabcccd",
"abcdbccdbcdabcdabcdbcdabcdabcdbc",
"cacdbcacdbcacdbcacdbcacdbcacdbca",
};
