/* XPM */
static char *bump_wave_soft_xpm[] = {
"32 32 4 1",
"a c #202020",
"b c #606060",
"c c #A0A0A0",
"d c #E0E0E0",
"aaaabbbbccccddddccccbbbbaaaabbbb",
"aabbbbccccddddccccbbbbaaaabbbbcc",
"bbbbccccddddccccbbbbaaaabbbbcccc",
"bbccccddddccccbbbbaaaabbbbccccdd",
"ccccddddccccbbbbaaaabbbbccccdddd",
"ccddddccccbbbbaaaabbbbccccddddcc",
"aaaabbbbccccddddccccbbbbaaaabbbb",
"aabbbbccccddddccccbbbbaaaabbbbcc",
"bbbbccccddddccccbbbbaaaabbbbcccc",
"bbccccddddccccbbbbaaaabbbbccccdd",
"ccccddddccccbbbbaaaabbbbccccdddd",
"ccddddccccbbbbaaaabbbbccccddddcc",
"aaaabbbbccccddddccccbbbbaaaabbbb",
"aabbbbccccddddccccbbbbaaaabbbbcc",
"bbbbccccddddccccbbbbaaaabbbbcccc",
"bbccccddddccccbbbbaaaabbbbccccdd",
"ccccddddccccbbbbaaaabbbbccccdddd",
"ccddddccccbbbbaaaabbbbccccddddcc",
"aaaabbbbccccddddccccbbbbaaaabbbb",
"aabbbbccccddddccccbbbbaaaabbbbcc",
"bbbbccccddddccccbbbbaaaabbbbcccc",
"bbccccddddccccbbbbaaaabbbbccccdd",
"ccccddddccccbbbbaaaabbbbccccdddd",
"ccddddccccbbbbaaaabbbbccccddddcc",
"aaaabbbbccccddddccccbbbbaaaabbbb",
"aabbbbccccddddccccbbbbaaaabbbbcc",
"bbbbccccddddccccbbbbaaaabbbbcccc",
"bbccccddddccccbbbbaaaabbbbccccdd",
"ccccddddccccbbbbaaaabbbbccccdddd",
"ccddddccccbbbbaaaabbbbccccddddcc",
"aaaabbbbccccddddccccbbbbaaaabbbb",
"aabbbbccccddddccccbbbbaaaabbbbcc",
};
